X: 1
P: Westering Home
C: Scotland
C: as sung by Bill McCue with Jimmy Shand and White Heather Club (Youtube)
M: 3/4
L: 1/4
K: G
FE|"G"D>D D|"G"DB,D|"Em"G G "D"A|"G"B3|"C"c>B A|"G"B>A G|"Am"E E>D|"D"D3|
"G"D>D D|"G"DB,D|"Em"G G "D"A|"G"B3|"G"d>B G|"D"B B A |"G"G3|"G"G3||
"G"d B G|"Em"G>A B|"Am"A>BA|"D"D3|"G"DEF|"Em"GA>B|"Am"c >Bc|"D"A3|
"G"d>B G|"Em"G>A B|"Am"A>BA|"D"D2 c|"G"BAG|"D"B2 A|"C"G3|"G"G3 |]

